X: 3
T: The Little Heathy Hill
M: C
L: 1/8
B: "O'Neill's 3"
N: "Moderate" "collected by F. O'Neill"
Z: "Transcribed by Norbert Paap, norbertp@bdu.uva.nl"
K:Gm
B/2-c/2 | d2 d>-c B2 A-B | (GBAG) F2 D-F | (G>AG).F (D>CD).F | G2 G>-A B3 c |
(d>ed).c B2 A>-B | (GBAG) F2 D-F | (G>AG).F (D>CD).F | G2 G>A G3 ||
D | GABc d2 d=e | f2 =ed c>AF>>c | d>edc B2 AB | GFD=E F2 B-c |
(d>ed).c B2 A2 | (GBAG) F2 D-F | (G>AG).F (D>CD).F | G2 G>A G3 ||


